svg/angular.svg

<svg xmlns="http://www.w3.org/2000/svg" viewBox="0 0 24 24"><path d="m12 2.5 8.84 3.15-1.34 11.7L12 21.5l-7.5-4.15-1.34-11.7zm0 2.1L6.47 17h2.06l1.11-2.78h4.7L15.45 17h2.05zm1.62 7.9h-3.23L12 8.63z"/></svg>

<?xml version="1.0" encoding="UTF-8"?><!DOCTYPE svg PUBLIC "-//W3C//DTD SVG 1.1//EN" "http://www.w3.org/Graphics/SVG/1.1/DTD/svg11.dtd"><svg xmlns="http://www.w3.org/2000/svg" xmlns:xlink="http://www.w3.org/1999/xlink" version="1.1" id="mdi-angular" width="24" height="24" viewBox="0 0 24 24"><path d="M12,2.5L20.84,5.65L19.5,17.35L12,21.5L4.5,17.35L3.16,5.65L12,2.5M12,4.6L6.47,17H8.53L9.64,14.22H14.34L15.45,17H17.5L12,4.6M13.62,12.5H10.39L12,8.63L13.62,12.5Z" /></svg>
